topics/special-relativity/Latex/images/svg/Tikz_Light_Pulse_Proper_Frame.svg

<?xml version="1.0" encoding="UTF-8"?>
<svg xmlns="http://www.w3.org/2000/svg" xmlns:xlink="http://www.w3.org/1999/xlink" width="146.442pt" height="107.748pt" viewBox="0 0 146.442 107.748" version="1.1">
<defs>
<g>
<symbol overflow="visible" id="glyph0-0">
<path style="stroke:none;" d=""/>
</symbol>
<symbol overflow="visible" id="glyph0-1">
<path style="stroke:none;" d="M 2.109375 -2.9375 C 1.734375 -3 1.09375 -3.109375 1.09375 -3.578125 C 1.09375 -4.203125 2.015625 -4.203125 2.203125 -4.203125 C 2.953125 -4.203125 3.328125 -3.90625 3.375 -3.359375 C 3.390625 -3.203125 3.40625 -3.15625 3.609375 -3.15625 C 3.84375 -3.15625 3.84375 -3.203125 3.84375 -3.4375 L 3.84375 -4.234375 C 3.84375 -4.421875 3.84375 -4.515625 3.671875 -4.515625 C 3.625 -4.515625 3.609375 -4.515625 3.21875 -4.328125 C 2.953125 -4.453125 2.609375 -4.515625 2.21875 -4.515625 C 1.90625 -4.515625 0.375 -4.515625 0.375 -3.203125 C 0.375 -2.8125 0.578125 -2.546875 0.78125 -2.375 C 1.171875 -2.03125 1.5625 -1.96875 2.328125 -1.828125 C 2.6875 -1.765625 3.421875 -1.640625 3.421875 -1.046875 C 3.421875 -0.296875 2.515625 -0.296875 2.296875 -0.296875 C 1.234375 -0.296875 0.984375 -1.03125 0.859375 -1.453125 C 0.8125 -1.59375 0.75 -1.59375 0.625 -1.59375 C 0.375 -1.59375 0.375 -1.53125 0.375 -1.3125 L 0.375 -0.21875 C 0.375 -0.03125 0.375 0.0625 0.5625 0.0625 C 0.625 0.0625 0.640625 0.0625 0.859375 -0.09375 C 0.875 -0.09375 1.09375 -0.234375 1.109375 -0.265625 C 1.578125 0.0625 2.09375 0.0625 2.296875 0.0625 C 2.609375 0.0625 4.140625 0.0625 4.140625 -1.390625 C 4.140625 -1.828125 3.9375 -2.171875 3.59375 -2.453125 C 3.203125 -2.734375 2.875 -2.796875 2.109375 -2.9375 Z M 2.109375 -2.9375 "/>
</symbol>
<symbol overflow="visible" id="glyph0-2">
<path style="stroke:none;" d="M 3.59375 -4.0625 C 3.40625 -3.890625 3.390625 -3.6875 3.390625 -3.59375 C 3.390625 -3.15625 3.734375 -2.96875 4 -2.96875 C 4.3125 -2.96875 4.640625 -3.1875 4.640625 -3.59375 C 4.640625 -4.453125 3.484375 -4.515625 2.90625 -4.515625 C 1.109375 -4.515625 0.375 -3.375 0.375 -2.21875 C 0.375 -0.890625 1.3125 0.0625 2.84375 0.0625 C 4.46875 0.0625 4.765625 -1.09375 4.765625 -1.171875 C 4.765625 -1.3125 4.625 -1.3125 4.53125 -1.3125 C 4.34375 -1.3125 4.34375 -1.28125 4.28125 -1.15625 C 4.03125 -0.53125 3.546875 -0.34375 3.046875 -0.34375 C 1.65625 -0.34375 1.65625 -1.796875 1.65625 -2.265625 C 1.65625 -2.828125 1.65625 -4.109375 2.9375 -4.109375 C 3.296875 -4.109375 3.453125 -4.09375 3.59375 -4.0625 Z M 3.59375 -4.0625 "/>
</symbol>
<symbol overflow="visible" id="glyph0-3">
<path style="stroke:none;" d="M 2.03125 -3.359375 L 2.03125 -4.484375 L 0.375 -4.40625 L 0.375 -3.9375 C 0.984375 -3.9375 1.0625 -3.9375 1.0625 -3.546875 L 1.0625 -0.46875 L 0.375 -0.46875 L 0.375 0 C 0.71875 -0.015625 1.171875 -0.03125 1.625 -0.03125 C 2 -0.03125 2.640625 -0.03125 3 0 L 3 -0.46875 L 2.140625 -0.46875 L 2.140625 -2.21875 C 2.140625 -2.90625 2.375 -4.125 3.375 -4.125 C 3.375 -4.109375 3.1875 -3.953125 3.1875 -3.671875 C 3.1875 -3.265625 3.515625 -3.0625 3.796875 -3.0625 C 4.09375 -3.0625 4.40625 -3.265625 4.40625 -3.671875 C 4.40625 -4.203125 3.875 -4.484375 3.34375 -4.484375 C 2.65625 -4.484375 2.25 -3.984375 2.03125 -3.359375 Z M 2.03125 -3.359375 "/>
</symbol>
<symbol overflow="visible" id="glyph1-0">
<path style="stroke:none;" d=""/>
</symbol>
<symbol overflow="visible" id="glyph1-1">
<path style="stroke:none;" d="M 4.84375 -3.796875 C 4.890625 -3.9375 4.890625 -3.953125 4.890625 -4.03125 C 4.890625 -4.203125 4.75 -4.296875 4.59375 -4.296875 C 4.5 -4.296875 4.34375 -4.234375 4.25 -4.09375 C 4.234375 -4.03125 4.140625 -3.734375 4.109375 -3.546875 C 4.03125 -3.296875 3.96875 -3.015625 3.90625 -2.75 L 3.453125 -0.953125 C 3.421875 -0.8125 2.984375 -0.109375 2.328125 -0.109375 C 1.828125 -0.109375 1.71875 -0.546875 1.71875 -0.921875 C 1.71875 -1.375 1.890625 -2 2.21875 -2.875 C 2.375 -3.28125 2.421875 -3.390625 2.421875 -3.59375 C 2.421875 -4.03125 2.109375 -4.40625 1.609375 -4.40625 C 0.65625 -4.40625 0.296875 -2.953125 0.296875 -2.875 C 0.296875 -2.765625 0.390625 -2.765625 0.40625 -2.765625 C 0.515625 -2.765625 0.515625 -2.796875 0.5625 -2.953125 C 0.84375 -3.890625 1.234375 -4.1875 1.578125 -4.1875 C 1.65625 -4.1875 1.828125 -4.1875 1.828125 -3.875 C 1.828125 -3.625 1.71875 -3.359375 1.65625 -3.171875 C 1.25 -2.109375 1.078125 -1.546875 1.078125 -1.078125 C 1.078125 -0.1875 1.703125 0.109375 2.296875 0.109375 C 2.6875 0.109375 3.015625 -0.0625 3.296875 -0.34375 C 3.171875 0.171875 3.046875 0.671875 2.65625 1.203125 C 2.390625 1.53125 2.015625 1.828125 1.5625 1.828125 C 1.421875 1.828125 0.96875 1.796875 0.796875 1.40625 C 0.953125 1.40625 1.09375 1.40625 1.21875 1.28125 C 1.328125 1.203125 1.421875 1.0625 1.421875 0.875 C 1.421875 0.5625 1.15625 0.53125 1.0625 0.53125 C 0.828125 0.53125 0.5 0.6875 0.5 1.171875 C 0.5 1.671875 0.9375 2.046875 1.5625 2.046875 C 2.578125 2.046875 3.609375 1.140625 3.890625 0.015625 Z M 4.84375 -3.796875 "/>
</symbol>
<symbol overflow="visible" id="glyph1-2">
<path style="stroke:none;" d="M 1.328125 -0.828125 C 1.859375 -1.40625 2.15625 -1.65625 2.515625 -1.96875 C 2.515625 -1.96875 3.125 -2.5 3.484375 -2.859375 C 4.4375 -3.78125 4.65625 -4.265625 4.65625 -4.3125 C 4.65625 -4.40625 4.5625 -4.40625 4.546875 -4.40625 C 4.46875 -4.40625 4.453125 -4.390625 4.390625 -4.296875 C 4.09375 -3.8125 3.890625 -3.65625 3.65625 -3.65625 C 3.40625 -3.65625 3.296875 -3.8125 3.140625 -3.984375 C 2.953125 -4.203125 2.78125 -4.40625 2.453125 -4.40625 C 1.703125 -4.40625 1.25 -3.484375 1.25 -3.265625 C 1.25 -3.21875 1.28125 -3.15625 1.359375 -3.15625 C 1.453125 -3.15625 1.46875 -3.203125 1.5 -3.265625 C 1.6875 -3.734375 2.265625 -3.734375 2.34375 -3.734375 C 2.546875 -3.734375 2.734375 -3.671875 2.96875 -3.59375 C 3.375 -3.4375 3.484375 -3.4375 3.734375 -3.4375 C 3.375 -3.015625 2.546875 -2.296875 2.359375 -2.140625 L 1.453125 -1.296875 C 0.78125 -0.625 0.421875 -0.0625 0.421875 0.015625 C 0.421875 0.109375 0.53125 0.109375 0.546875 0.109375 C 0.625 0.109375 0.640625 0.09375 0.703125 -0.015625 C 0.9375 -0.375 1.234375 -0.640625 1.5625 -0.640625 C 1.78125 -0.640625 1.890625 -0.546875 2.140625 -0.265625 C 2.296875 -0.046875 2.484375 0.109375 2.765625 0.109375 C 3.765625 0.109375 4.34375 -1.15625 4.34375 -1.421875 C 4.34375 -1.46875 4.296875 -1.53125 4.21875 -1.53125 C 4.125 -1.53125 4.109375 -1.46875 4.078125 -1.390625 C 3.84375 -0.75 3.203125 -0.5625 2.875 -0.5625 C 2.6875 -0.5625 2.5 -0.625 2.296875 -0.6875 C 1.953125 -0.8125 1.796875 -0.859375 1.59375 -0.859375 C 1.578125 -0.859375 1.421875 -0.859375 1.328125 -0.828125 Z M 1.328125 -0.828125 "/>
</symbol>
<symbol overflow="visible" id="glyph1-3">
<path style="stroke:none;" d="M 3.328125 -3.015625 C 3.390625 -3.265625 3.625 -4.1875 4.3125 -4.1875 C 4.359375 -4.1875 4.609375 -4.1875 4.8125 -4.0625 C 4.53125 -4 4.34375 -3.765625 4.34375 -3.515625 C 4.34375 -3.359375 4.453125 -3.171875 4.71875 -3.171875 C 4.9375 -3.171875 5.25 -3.34375 5.25 -3.75 C 5.25 -4.265625 4.671875 -4.40625 4.328125 -4.40625 C 3.75 -4.40625 3.40625 -3.875 3.28125 -3.65625 C 3.03125 -4.3125 2.5 -4.40625 2.203125 -4.40625 C 1.171875 -4.40625 0.59375 -3.125 0.59375 -2.875 C 0.59375 -2.765625 0.703125 -2.765625 0.71875 -2.765625 C 0.796875 -2.765625 0.828125 -2.796875 0.84375 -2.875 C 1.1875 -3.9375 1.84375 -4.1875 2.1875 -4.1875 C 2.375 -4.1875 2.71875 -4.09375 2.71875 -3.515625 C 2.71875 -3.203125 2.546875 -2.546875 2.1875 -1.140625 C 2.03125 -0.53125 1.671875 -0.109375 1.234375 -0.109375 C 1.171875 -0.109375 0.953125 -0.109375 0.734375 -0.234375 C 0.984375 -0.296875 1.203125 -0.5 1.203125 -0.78125 C 1.203125 -1.046875 0.984375 -1.125 0.84375 -1.125 C 0.53125 -1.125 0.296875 -0.875 0.296875 -0.546875 C 0.296875 -0.09375 0.78125 0.109375 1.21875 0.109375 C 1.890625 0.109375 2.25 -0.59375 2.265625 -0.640625 C 2.390625 -0.28125 2.75 0.109375 3.34375 0.109375 C 4.375 0.109375 4.9375 -1.171875 4.9375 -1.421875 C 4.9375 -1.53125 4.859375 -1.53125 4.828125 -1.53125 C 4.734375 -1.53125 4.71875 -1.484375 4.6875 -1.421875 C 4.359375 -0.34375 3.6875 -0.109375 3.375 -0.109375 C 2.984375 -0.109375 2.828125 -0.421875 2.828125 -0.765625 C 2.828125 -0.984375 2.875 -1.203125 2.984375 -1.640625 Z M 3.328125 -3.015625 "/>
</symbol>
<symbol overflow="visible" id="glyph1-4">
<path style="stroke:none;" d="M 4.25 -6.046875 C 4.328125 -6.328125 4.359375 -6.390625 4.484375 -6.421875 C 4.578125 -6.4375 4.90625 -6.4375 5.109375 -6.4375 C 6.125 -6.4375 6.5625 -6.40625 6.5625 -5.625 C 6.5625 -5.46875 6.53125 -5.078125 6.484375 -4.828125 C 6.484375 -4.78125 6.453125 -4.671875 6.453125 -4.640625 C 6.453125 -4.578125 6.484375 -4.5 6.578125 -4.5 C 6.6875 -4.5 6.703125 -4.578125 6.734375 -4.734375 L 7 -6.46875 C 7.015625 -6.515625 7.015625 -6.609375 7.015625 -6.640625 C 7.015625 -6.75 6.921875 -6.75 6.75 -6.75 L 1.21875 -6.75 C 0.984375 -6.75 0.96875 -6.734375 0.890625 -6.546875 L 0.296875 -4.796875 C 0.296875 -4.78125 0.234375 -4.640625 0.234375 -4.609375 C 0.234375 -4.5625 0.296875 -4.5 0.359375 -4.5 C 0.453125 -4.5 0.46875 -4.5625 0.53125 -4.71875 C 1.0625 -6.265625 1.328125 -6.4375 2.796875 -6.4375 L 3.1875 -6.4375 C 3.46875 -6.4375 3.46875 -6.40625 3.46875 -6.3125 C 3.46875 -6.265625 3.4375 -6.140625 3.421875 -6.109375 L 2.09375 -0.78125 C 2 -0.421875 1.96875 -0.3125 0.90625 -0.3125 C 0.546875 -0.3125 0.484375 -0.3125 0.484375 -0.125 C 0.484375 0 0.59375 0 0.65625 0 C 0.921875 0 1.203125 -0.015625 1.46875 -0.015625 C 1.75 -0.015625 2.046875 -0.03125 2.328125 -0.03125 C 2.609375 -0.03125 2.875 -0.015625 3.15625 -0.015625 C 3.4375 -0.015625 3.734375 0 4.015625 0 C 4.109375 0 4.234375 0 4.234375 -0.203125 C 4.234375 -0.3125 4.15625 -0.3125 3.890625 -0.3125 C 3.65625 -0.3125 3.515625 -0.3125 3.265625 -0.328125 C 2.96875 -0.359375 2.890625 -0.390625 2.890625 -0.546875 C 2.890625 -0.5625 2.890625 -0.609375 2.9375 -0.75 Z M 4.25 -6.046875 "/>
</symbol>
<symbol overflow="visible" id="glyph2-0">
<path style="stroke:none;" d=""/>
</symbol>
<symbol overflow="visible" id="glyph2-1">
<path style="stroke:none;" d="M 0.515625 0.84375 C 0.46875 1.046875 0.453125 1.09375 0.1875 1.09375 C 0.09375 1.09375 0 1.09375 0 1.25 C 0 1.328125 0.0625 1.359375 0.09375 1.359375 C 0.265625 1.359375 0.5 1.328125 0.6875 1.328125 C 0.921875 1.328125 1.1875 1.359375 1.421875 1.359375 C 1.484375 1.359375 1.5625 1.328125 1.5625 1.203125 C 1.5625 1.09375 1.46875 1.09375 1.375 1.09375 C 1.21875 1.09375 1.03125 1.09375 1.03125 1.015625 C 1.03125 0.984375 1.09375 0.796875 1.109375 0.703125 C 1.203125 0.328125 1.296875 -0.046875 1.375 -0.34375 C 1.453125 -0.203125 1.671875 0.0625 2.09375 0.0625 C 2.9375 0.0625 3.875 -0.875 3.875 -1.90625 C 3.875 -2.71875 3.3125 -3.078125 2.84375 -3.078125 C 2.40625 -3.078125 2.03125 -2.78125 1.84375 -2.578125 C 1.734375 -2.984375 1.34375 -3.078125 1.125 -3.078125 C 0.859375 -3.078125 0.6875 -2.890625 0.578125 -2.703125 C 0.4375 -2.46875 0.328125 -2.046875 0.328125 -2 C 0.328125 -1.921875 0.421875 -1.921875 0.453125 -1.921875 C 0.546875 -1.921875 0.546875 -1.9375 0.59375 -2.125 C 0.703125 -2.53125 0.84375 -2.875 1.109375 -2.875 C 1.296875 -2.875 1.34375 -2.71875 1.34375 -2.53125 C 1.34375 -2.453125 1.328125 -2.375 1.3125 -2.328125 Z M 1.84375 -2.234375 C 2.25 -2.78125 2.59375 -2.875 2.8125 -2.875 C 3.09375 -2.875 3.328125 -2.671875 3.328125 -2.203125 C 3.328125 -1.921875 3.171875 -1.203125 2.96875 -0.796875 C 2.78125 -0.453125 2.453125 -0.125 2.09375 -0.125 C 1.59375 -0.125 1.46875 -0.65625 1.46875 -0.734375 C 1.46875 -0.765625 1.484375 -0.8125 1.484375 -0.84375 Z M 1.84375 -2.234375 "/>
</symbol>
</g>
<clipPath id="clip1">
  <path d="M 0 0 L 146.441406 0 L 146.441406 107.746094 L 0 107.746094 Z M 0 0 "/>
</clipPath>
<clipPath id="clip2">
  <path d="M 1 66 L 54 66 L 54 107.746094 L 1 107.746094 Z M 1 66 "/>
</clipPath>
<clipPath id="clip3">
  <path d="M 12 103 L 17 103 L 17 107.746094 L 12 107.746094 Z M 12 103 "/>
</clipPath>
<clipPath id="clip4">
  <path d="M 30 3 L 146.441406 3 L 146.441406 90 L 30 90 Z M 30 3 "/>
</clipPath>
</defs>
<g id="surface1">
<g clip-path="url(#clip1)" clip-rule="nonzero">
<path style=" stroke:none;fill-rule:nonzero;fill:rgb(100%,89.411926%,78.431702%);fill-opacity:1;" d="M 0 107.746094 L 146.441406 107.746094 L 146.441406 0 L 0 0 Z M 0 107.746094 "/>
</g>
<g style="fill:rgb(0%,0%,100%);fill-opacity:1;">
  <use xlink:href="#glyph0-1" x="48.219" y="88.486"/>
</g>
<path style="fill:none;stroke-width:0.79701;stroke-linecap:butt;stroke-linejoin:miter;stroke:rgb(0%,0%,100%);stroke-opacity:1;stroke-miterlimit:10;" d="M -0.00046875 0.0005 L 54.851094 0.0005 " transform="matrix(1,0,0,-1,42.145,77.938)"/>
<path style="fill:none;stroke-width:0.6376;stroke-linecap:round;stroke-linejoin:round;stroke:rgb(0%,0%,100%);stroke-opacity:1;stroke-miterlimit:10;" d="M -1.555034 2.070813 C -1.426127 1.293469 -0.00034625 0.129406 0.390279 0.0005 C -0.00034625 -0.128406 -1.426127 -1.296375 -1.555034 -2.073719 " transform="matrix(1,0,0,-1,96.99644,77.938)"/>
<g style="fill:rgb(0%,0%,100%);fill-opacity:1;">
  <use xlink:href="#glyph1-1" x="88.742" y="85.947"/>
</g>
<path style="fill:none;stroke-width:0.79701;stroke-linecap:butt;stroke-linejoin:miter;stroke:rgb(0%,0%,100%);stroke-opacity:1;stroke-miterlimit:10;" d="M -0.00046875 0.0005 L -0.00046875 54.852063 " transform="matrix(1,0,0,-1,42.145,77.938)"/>
<path style="fill:none;stroke-width:0.6376;stroke-linecap:round;stroke-linejoin:round;stroke:rgb(0%,0%,100%);stroke-opacity:1;stroke-miterlimit:10;" d="M -1.554065 2.070781 C -1.425159 1.293438 0.0006225 0.129375 0.387341 0.00046875 C 0.0006225 -0.128437 -1.425159 -1.296406 -1.554065 -2.07375 " transform="matrix(0,-1,-1,0,42.145,23.08656)"/>
<g style="fill:rgb(0%,0%,100%);fill-opacity:1;">
  <use xlink:href="#glyph1-2" x="45.864" y="30.389"/>
</g>
<g clip-path="url(#clip2)" clip-rule="nonzero">
<path style="fill:none;stroke-width:0.79701;stroke-linecap:butt;stroke-linejoin:miter;stroke:rgb(0%,0%,100%);stroke-opacity:1;stroke-miterlimit:10;" d="M -0.00046875 0.0005 L -28.910625 -28.909656 " transform="matrix(1,0,0,-1,42.145,77.938)"/>
</g>
<g clip-path="url(#clip3)" clip-rule="nonzero">
<path style="fill:none;stroke-width:0.6376;stroke-linecap:round;stroke-linejoin:round;stroke:rgb(0%,0%,100%);stroke-opacity:1;stroke-miterlimit:10;" d="M -1.554145 2.070937 C -1.424323 1.294769 0.000952836 0.129137 0.390418 -0.000685016 C 0.000952836 -0.130507 -1.424323 -1.296139 -1.554145 -2.072307 " transform="matrix(-0.7071,0.7071,0.7071,0.7071,13.23358,106.84942)"/>
</g>
<g style="fill:rgb(0%,0%,100%);fill-opacity:1;">
  <use xlink:href="#glyph1-3" x="3.321" y="103.63"/>
</g>
<g clip-path="url(#clip4)" clip-rule="nonzero">
<path style="fill:none;stroke-width:0.79701;stroke-linecap:butt;stroke-linejoin:miter;stroke:rgb(100%,0%,0%);stroke-opacity:1;stroke-dasharray:0.79701,1.99255;stroke-miterlimit:10;" d="M -0.00046875 0.0005 L 95.253437 63.5005 " transform="matrix(1,0,0,-1,42.145,77.938)"/>
</g>
<path style="fill:none;stroke-width:0.6376;stroke-linecap:round;stroke-linejoin:round;stroke:rgb(100%,0%,0%);stroke-opacity:1;stroke-miterlimit:10;" d="M -1.555748 2.072748 C -1.425728 1.29592 -0.000989531 0.130146 0.387968 0.00230256 C 0.0000960681 -0.128797 -1.425707 -1.295679 -1.55463 -2.073593 " transform="matrix(0.83202,-0.55467,-0.55467,-0.83202,137.39723,14.43586)"/>
<g style="fill:rgb(100%,0%,0%);fill-opacity:1;">
  <use xlink:href="#glyph0-2" x="97.104" y="47.97"/>
</g>
<g style="fill:rgb(100%,0%,0%);fill-opacity:1;">
  <use xlink:href="#glyph1-4" x="102.196" y="47.97"/>
</g>
<g style="fill:rgb(100%,0%,0%);fill-opacity:1;">
  <use xlink:href="#glyph2-1" x="108.018" y="49.464"/>
</g>
<path style=" stroke:none;fill-rule:nonzero;fill:rgb(0%,0%,100%);fill-opacity:1;" d="M 47.027344 77.9375 C 47.027344 75.242188 44.839844 73.054688 42.144531 73.054688 C 39.449219 73.054688 37.261719 75.242188 37.261719 77.9375 C 37.261719 80.632813 39.449219 82.820313 42.144531 82.820313 C 44.839844 82.820313 47.027344 80.632813 47.027344 77.9375 Z M 47.027344 77.9375 "/>
<path style=" stroke:none;fill-rule:nonzero;fill:rgb(0%,0%,0%);fill-opacity:1;" d="M 142.71875 11.265625 C 142.71875 10.1875 141.84375 9.3125 140.765625 9.3125 C 139.6875 9.3125 138.8125 10.1875 138.8125 11.265625 C 138.8125 12.34375 139.6875 13.21875 140.765625 13.21875 C 141.84375 13.21875 142.71875 12.34375 142.71875 11.265625 Z M 142.71875 11.265625 "/>
<g style="fill:rgb(0%,0%,0%);fill-opacity:1;">
  <use xlink:href="#glyph0-3" x="138.404" y="7.748"/>
</g>
</g>
</svg>

<svg xmlns="http://www.w3.org/2000/svg" xmlns:xlink="http://www.w3.org/1999/xlink" width="196.247" height="148.128" viewBox="0 0 147.185 111.096"><defs><symbol id="b" overflow="visible"><path d="M3.89-3.734c-.265.015-.468.234-.468.453 0 .14.094.297.312.297.22 0 .454-.172.454-.563 0-.453-.422-.86-1.188-.86-1.312 0-1.687 1.016-1.687 1.454 0 .781.734.922 1.03.984.516.11 1.032.219 1.032.766 0 .25-.219 1.094-1.422 1.094-.14 0-.906 0-1.14-.532.39.047.64-.25.64-.53 0-.22-.172-.345-.375-.345-.266 0-.562.204-.562.657 0 .562.578.968 1.422.968 1.625 0 2.015-1.203 2.015-1.656a.97.97 0 0 0-.312-.719c-.266-.28-.563-.343-1-.421-.36-.079-.75-.157-.75-.61 0-.281.234-.89 1.109-.89.25 0 .75.078.89.453m0 0" style="stroke:none"/></symbol><symbol id="d" overflow="visible"><path d="M4.844-3.797c.047-.14.047-.156.047-.234 0-.172-.141-.266-.297-.266a.46.46 0 0 0-.344.203c-.016.063-.11.36-.14.547-.079.25-.141.531-.204.797L3.453-.953c-.031.14-.469.844-1.125.844-.5 0-.61-.438-.61-.813 0-.453.173-1.078.5-1.953.157-.406.204-.516.204-.719 0-.437-.313-.812-.813-.812-.953 0-1.312 1.453-1.312 1.531 0 .11.094.11.11.11.109 0 .109-.032.156-.188.28-.938.671-1.235 1.015-1.235.078 0 .25 0 .25.313 0 .25-.11.516-.172.703-.406 1.063-.578 1.625-.578 2.094 0 .89.625 1.187 1.219 1.187.39 0 .719-.171 1-.453-.125.516-.25 1.016-.64 1.547-.266.328-.641.625-1.094.625-.141 0-.594-.031-.766-.422.156 0 .297 0 .422-.125a.5.5 0 0 0 .203-.406c0-.312-.266-.344-.36-.344C.829.531.5.687.5 1.171c0 .5.438.876 1.063.876 1.015 0 2.046-.906 2.328-2.031Zm0 0" style="stroke:none"/></symbol><symbol id="e" overflow="visible"><path d="M1.328-.828c.531-.578.828-.828 1.188-1.14 0 0 .609-.532.968-.891.954-.922 1.172-1.407 1.172-1.453 0-.094-.093-.094-.11-.094-.077 0-.093.015-.155.11-.297.484-.5.64-.735.64-.25 0-.36-.156-.515-.328-.188-.22-.36-.422-.688-.422-.75 0-1.203.922-1.203 1.14 0 .047.031.11.11.11.093 0 .109-.047.14-.11.188-.468.766-.468.844-.468.203 0 .39.062.625.14.406.156.515.156.765.156-.359.422-1.187 1.141-1.375 1.297l-.906.844C.781-.625.422-.062.422.016c0 .093.11.093.125.093C.625.11.64.094.703-.016c.235-.359.531-.625.86-.625.218 0 .328.094.578.375.156.22.343.375.625.375 1 0 1.578-1.265 1.578-1.53 0-.048-.047-.11-.125-.11-.094 0-.11.062-.14.14-.235.641-.876.829-1.204.829-.187 0-.375-.063-.578-.125-.344-.125-.5-.172-.703-.172-.016 0-.172 0-.266.03m0 0" style="stroke:none"/></symbol><symbol id="g" overflow="visible"><path d="M3.328-3.016c.063-.25.297-1.171.985-1.171.046 0 .296 0 .5.125a.58.58 0 0 0-.47.546c0 .157.11.344.376.344a.546.546 0 0 0 .531-.578c0-.516-.578-.656-.922-.656-.578 0-.922.531-1.047.75-.25-.656-.781-.75-1.078-.75-1.031 0-1.61 1.281-1.61 1.531 0 .11.11.11.126.11.078 0 .11-.032.125-.11.344-1.062 1-1.312 1.344-1.312.187 0 .53.093.53.671 0 .313-.171.97-.53 2.375-.157.61-.516 1.032-.954 1.032-.062 0-.28 0-.5-.125.25-.063.47-.266.47-.547 0-.266-.22-.344-.36-.344-.313 0-.547.25-.547.578 0 .453.484.656.922.656.672 0 1.031-.703 1.047-.75.125.36.484.75 1.078.75 1.031 0 1.594-1.28 1.594-1.53 0-.11-.079-.11-.11-.11-.094 0-.11.047-.14.11-.329 1.077-1 1.312-1.313 1.312-.39 0-.547-.313-.547-.657 0-.218.047-.437.156-.875Zm0 0" style="stroke:none"/></symbol><symbol id="j" overflow="visible"><path d="M.875-.594c-.031.156-.094.39-.094.438 0 .172.14.265.297.265a.41.41 0 0 0 .375-.28c.016-.032.344-1.391.39-1.579.079-.328.266-1.016.313-1.297.047-.125.328-.594.563-.812.078-.063.375-.328.797-.328.265 0 .406.125.422.125-.297.046-.516.28-.516.546 0 .157.11.344.375.344s.547-.234.547-.594c0-.343-.313-.64-.828-.64-.641 0-1.078.484-1.266.765-.094-.453-.453-.765-.922-.765-.453 0-.64.39-.734.562-.172.344-.297.938-.297.969 0 .11.094.11.11.11.109 0 .109-.016.171-.235.172-.703.375-1.187.735-1.187.156 0 .296.078.296.453 0 .218-.03.328-.156.843Zm0 0" style="stroke:none"/></symbol><symbol id="c" overflow="visible"><path d="M3.594-2.219c0-.765-.094-1.328-.406-1.812-.22-.313-.657-.594-1.204-.594C.36-4.625.36-2.719.36-2.219s0 2.36 1.625 2.36c1.61 0 1.61-1.86 1.61-2.36M1.984-.062c-.328 0-.75-.188-.89-.75C1-1.22 1-1.797 1-2.312c0-.516 0-1.047.094-1.422.156-.547.593-.703.89-.703.375 0 .735.234.86.64.11.375.125.875.125 1.485 0 .515 0 1.03-.094 1.468-.14.64-.61.782-.89.782m0 0" style="stroke:none"/></symbol><clipPath id="a"><path d="M0 0h147.184v111.098H0Zm0 0"/></clipPath><clipPath id="f"><path d="M6 70h52v41.098H6Zm0 0"/></clipPath><clipPath id="h"><path d="M35 6h112.184v87H35Zm0 0"/></clipPath><clipPath id="i"><path d="M143 12h4.184v5H143Zm0 0"/></clipPath></defs><g clip-path="url(#a)"><path d="M0 111.098h147.184V0H0Zm0 0" style="stroke:none;fill-rule:nonzero;fill:#ffe4c8;fill-opacity:1"/></g><use xlink:href="#b" x="50.378" y="91.017" style="fill:#00f;fill-opacity:1"/><use xlink:href="#c" x="55.048" y="92.512" style="fill:#00f;fill-opacity:1"/><path d="M0 0h54.85" style="fill:none;stroke-width:.79701;stroke-linecap:butt;stroke-linejoin:miter;stroke:#00f;stroke-opacity:1;stroke-miterlimit:10" transform="matrix(1 0 0 -1 46.614 81.286)"/><path d="M-1.555 2.071C-1.426 1.294-.001.13.39.001 0-.13-1.426-1.296-1.555-2.073" style="fill:none;stroke-width:.6376;stroke-linecap:round;stroke-linejoin:round;stroke:#00f;stroke-opacity:1;stroke-miterlimit:10" transform="matrix(1 0 0 -1 101.465 81.286)"/><use xlink:href="#d" x="89.099" y="89.295" style="fill:#00f;fill-opacity:1"/><use xlink:href="#c" x="93.984" y="90.789" style="fill:#00f;fill-opacity:1"/><path d="M0 0v54.852" style="fill:none;stroke-width:.79701;stroke-linecap:butt;stroke-linejoin:miter;stroke:#00f;stroke-opacity:1;stroke-miterlimit:10" transform="matrix(1 0 0 -1 46.614 81.286)"/><path d="M-1.554 2.071C-1.424 1.294.001.13.388.001 0-.13-1.425-1.296-1.554-2.073" style="fill:none;stroke-width:.6376;stroke-linecap:round;stroke-linejoin:round;stroke:#00f;stroke-opacity:1;stroke-miterlimit:10" transform="matrix(0 -1 -1 0 46.614 26.435)"/><use xlink:href="#e" x="33.793" y="33.737" style="fill:#00f;fill-opacity:1"/><use xlink:href="#c" x="38.426" y="35.231" style="fill:#00f;fill-opacity:1"/><g clip-path="url(#f)"><path d="m0 0-28.91-28.913" style="fill:none;stroke-width:.79701;stroke-linecap:butt;stroke-linejoin:miter;stroke:#00f;stroke-opacity:1;stroke-miterlimit:10" transform="matrix(1 0 0 -1 46.614 81.286)"/></g><path d="M-1.554 2.07C-1.424 1.295 0 .13.388.003 0-.131-1.424-1.297-1.554-2.073" style="fill:none;stroke-width:.6376;stroke-linecap:round;stroke-linejoin:round;stroke:#00f;stroke-opacity:1;stroke-miterlimit:10" transform="scale(-1 1)rotate(45 -141.873 33.73)"/><use xlink:href="#g" x="3.321" y="105.484" style="fill:#00f;fill-opacity:1"/><use xlink:href="#c" x="9.014" y="106.978" style="fill:#00f;fill-opacity:1"/><g clip-path="url(#h)"><path d="m0 0 95.253 63.5" style="fill:none;stroke-width:.79701;stroke-linecap:butt;stroke-linejoin:miter;stroke:red;stroke-opacity:1;stroke-dasharray:.79701,1.99255;stroke-miterlimit:10" transform="matrix(1 0 0 -1 46.614 81.286)"/></g><path d="M-1.556 2.073C-1.426 1.296 0 .131.39-.003 0-.128-1.426-1.295-1.555-2.073" style="fill:none;stroke-width:.6376;stroke-linecap:round;stroke-linejoin:round;stroke:red;stroke-opacity:1;stroke-miterlimit:10" transform="scale(.99996 -.99996)rotate(33.69 100.306 225.397)"/><path d="M51.496 81.285a4.885 4.885 0 0 0-4.883-4.883 4.885 4.885 0 0 0-4.883 4.883 4.885 4.885 0 0 0 4.883 4.883 4.885 4.885 0 0 0 4.883-4.883m0 0" style="stroke:none;fill-rule:nonzero;fill:#00f;fill-opacity:1"/><g clip-path="url(#i)"><path d="M147.188 14.613a1.95 1.95 0 0 0-1.954-1.949 1.95 1.95 0 1 0 0 3.902 1.95 1.95 0 0 0 1.953-1.953m0 0" style="stroke:none;fill-rule:nonzero;fill:#000;fill-opacity:1"/></g><use xlink:href="#j" x="132.748" y="7.61" style="fill:#000;fill-opacity:1"/><use xlink:href="#c" x="137.243" y="9.104" style="fill:#000;fill-opacity:1"/><path d="M-.002-.001h8.965" style="fill:none;stroke-width:.398;stroke-linecap:butt;stroke-linejoin:miter;stroke:#000;stroke-opacity:1;stroke-miterlimit:10" transform="matrix(1 0 0 -1 132.748 10.499)"/></svg>
